azure-patterns/svg-migrate.svg

<svg xmlns="http://www.w3.org/2000/svg" viewBox="0 0 35 24">
                                
                            
  <path d="M35,11.9512 L0,0 L3.89478,11.9512 L0,23.9023 L35,11.9512 Z M24.7299,10.8213 L3.48102,3.56567 L5.84149,10.8198 L24.7299,10.8213 Z M24.7292,13.0808 L5.84204,13.0808 L3.48157,20.335 L24.7292,13.0808 Z" stroke="none" stroke-width="1" fill-rule="evenodd"></path>
</svg>

<svg xmlns="http://www.w3.org/2000/svg" viewBox="0 0 35 24"><path d="M35 11.951L0 0l3.895 11.951L0 23.902l35-11.95zm-10.27-1.13L3.48 3.566l2.36 7.254 18.889.001zm0 2.26H5.841l-2.36 7.254 21.247-7.254z" fill-rule="evenodd"/></svg>
